!!!COM: Giovannelli, Ruggiero
!!!CDT:
!!!OTL: Tu nascesti di furto
!!!PTL: La gloria musicale. A cinque voci
!!!PPP: Venice
!!!PPR: Amadino
!!!PDT: 1592
!!!PUB-format: anthology
!!!RISM: 1592-14
!!!rime: 1032
!!!AGN: Madrigal
!!!SCT: Trm1032a
!!!SCA: Trm1032a
!!!original-voices: 5
!!!extant-voices: 5
!!!complete: Y
!!!final: G
**kern	**text	**kern	**text	**kern	**text	**kern	**text	**kern	**text
*part5	*part5	*part4	*part4	*part3	*part3	*part2	*part2	*part1	*part1
*staff5	*staff5	*staff4	*staff4	*staff3	*staff3	*staff2	*staff2	*staff1	*staff1
*I"Basso	*	*I"Tenore	*	*I"Alto	*	*I"Quinto	*	*I"Canto	*
*I'B	*	*I'T	*	*I'A	*	*I'V	*	*I'C	*
*oclefF4	*	*oclefC4	*	*oclefC3	*	*oclefC1	*	*oclefC1	*
*clefF4	*	*clefGv2	*	*clefGv2	*	*clefG2	*	*clefG2	*
*k[b-]	*	*k[b-]	*	*k[b-]	*	*k[b-]	*	*k[b-]	*
*e:	*	*e:	*	*e:	*	*e:	*	*e:	*
*omet(C)	*	*omet(C)	*	*omet(C)	*	*omet(C)	*	*omet(C)	*
*M4/2	*	*M4/2	*	*M4/2	*	*M4/2	*	*M4/2	*
=1	=1	=1	=1	=1	=1	=1	=1	=1	=1
0r	.	0r	.	0r	.	0r	.	4g	Tu
.	.	.	.	.	.	.	.	4g	na-
.	.	.	.	.	.	.	.	4g	-sce-
.	.	.	.	.	.	.	.	8g	-sti
.	.	.	.	.	.	.	.	8g	di
.	.	.	.	.	.	.	.	2f#X	fur-
.	.	.	.	.	.	.	.	2g	-to,
=2	=2	=2	=2	=2	=2	=2	=2	=2	=2
0r	.	1r	.	0r	.	4g	Tu	4r	.
.	.	.	.	.	.	4g	na-	8dd	Pic-
.	.	.	.	.	.	.	.	8cc	-cio-
.	.	.	.	.	.	4g	-sce-	4b-	-let-
.	.	.	.	.	.	8g	-sti	8b-	-to
.	.	.	.	.	.	8g	di	8b-	Ger-
.	.	4r	.	.	.	2f#X	fur-	2a	-bi-
.	.	4D	Ma	.	.	.	.	.	.
.	.	2G	fu	.	.	2g	-to,	4g	-no,
.	.	.	.	.	.	.	.	4d	Ma
=3	=3	=3	=3	=3	=3	=3	=3	=3	=3
1r	.	4G	cer-	4g	Tu	4r	.	4g	fu,
.	.	8G	-to	4g	na-	8dd	Pic-	4b-	Ma
.	.	8A	fe-	.	.	8cc	-cio-	.	.
.	.	8B-	-li-	4g	-sce-	4b-	-let-	2dd	fu
.	.	8A	-ce il	.	.	.	.	.	.
.	.	8B-	tuo	8g	-sti	8b-	-to	.	.
.	.	8c	de-	8g	di	8b-	Ger-	.	.
2r	.	2d	-sti-	2f#X	fur-	2a	-bi-	4dd	cer-
.	.	.	.	.	.	.	.	8dd	-to
.	.	.	.	.	.	.	.	8cc	fe-
4G	Tu	2d	-no,	4g	-to,	4g	-no,	8b-	-li-
.	.	.	.	.	.	.	.	8a	-ce il
4G	na-	.	.	8d	Pic-	4g	Ma	8g	tuo
.	.	.	.	8c	-cio-	.	.	8f	de-
=4	=4	=4	=4	=4	=4	=4	=4	=4	=4
4G	-sce-	2r	.	4B-	-let-	2dd	fu	4g	-sti-
8G	-sti	.	.	8B-	-to	.	.	4g	-no,
8G	di	.	.	8B-	Ger-	.	.	.	.
2F#X	fur-	2D	Ma	4A	-bi-	4dd	cer-	2r	.
.	.	.	.	4A	-no,	8dd	-to	.	.
.	.	.	.	.	.	8cc	fe-	.	.
2G	-to,	2G	fu	4r	.	8b-	-li-	2r	.
.	.	.	.	.	.	8a	-ce il	.	.
.	.	.	.	8d	Pic-	8b-	tuo	.	.
.	.	.	.	8c	-cio-	8cc	de-	.	.
4r	.	4G	cer-	4B-	-let-	4dd	-sti-	4g	Tu
8G	Pic-	8G	-to	8B-	-to	4dd	-no,	4g	na-
8FnXi	-cio-	8A	fe-	8A	Ger-	.	.	.	.
=5	=5	=5	=5	=5	=5	=5	=5	=5	=5
4E-X	-let-	8B-	-li-	4G	-bi-	2r	.	4g	-sce-
.	.	8A	-ce il	.	.	.	.	.	.
8E-i	-to	8B-	tuo	4G	-no,	.	.	8g	-sti
8E-i	Gre-	8c	de-	.	.	.	.	8g	di
2D	-chi-	4d	-sti-	4A	Tu	4r	.	2f#X	fur-
.	.	4A	-no,	4d	na-	8dd	Pic-	.	.
.	.	.	.	.	.	8cc	-cio-	.	.
4GG	-no,	2r	.	4g	-sce-	4b-	-let-	2g	-to,
4GG	Ma	.	.	8g	-sti	8b-	-to	.	.
.	.	.	.	8g	di	8b-	Ger-	.	.
2D	fu,	4r	.	2f#X	fur-	2a	-bi-	4r	.
.	.	4D	<Ma	.	.	.	.	8dd	Pic-
.	.	.	.	.	.	.	.	8cc	-cio-
=6	=6	=6	=6	=6	=6	=6	=6	=6	=6
4r	.	2G	fu	4g	-to,	4g	-no,	4b-	-let-
4GG	Ma	.	.	8g	Pic-	4dd	Ma	8b-	-to
.	.	.	.	8g	-cio-	.	.	8b-	Ger-
2D	fu	4A	cer-	4fnXi	-let-	2dd	fu	2a	-bi-
.	.	8A	-to	8f	-to	.	.	.	.
.	.	8A	fe-	8e	Ger-	.	.	.	.
4GG	cer-	8B-	-li-	4d	-bi-	4dd	cer-	4g	-no,
.	.	8A	-ce il	.	.	.	.	.	.
8GG	-to	8B-	tuo	4d	-no,	8dd	-to	4g	Ma
8AA	fe-	8c	de-	.	.	8cc	fe-	.	.
8BB-	-li-	2d	-sti-	4r	.	4b-	-li-	2dd	fu
8AA	-ce il	.	.	.	.	.	.	.	.
8BB-	tuo	.	.	4d	Ma	4b-	-ce il	.	.
8C	de-	.	.	.	.	.	.	.	.
=7	=7	=7	=7	=7	=7	=7	=7	=7	=7
1D	-sti-	2d	-no,>	2f	fu	4a	tuo	4d	cer-
.	.	.	.	.	.	4a	de-	8d	-to
.	.	.	.	.	.	.	.	8e	fe-
.	.	4D	cer-	4f	cer-	4a	-sti-	8f	-li-
.	.	.	.	.	.	.	.	8e	-ce il
.	.	8D	-to	8f	-to	4a	-no.	8f	tuo
.	.	8E	fe-	8e	fe-	.	.	8g	de-
1D	-no.	8F	-li-	8d	-li-	1r	.	1a	-sti-
.	.	8E	-ce il	8c	-ce il	.	.	.	.
.	.	8F	tuo	8d	tuo	.	.	.	.
.	.	8G	de-	8e	de-	.	.	.	.
.	.	2A	-sti-	2f#X	-sti-	.	.	.	.
=8	=8	=8	=8	=8	=8	=8	=8	=8	=8
2r	.	4G	-no.	1g	-no.	4r	.	2b-	-no.
.	.	4.G	Ché	.	.	4.b-	Ché	.	.
4.G	Ché	.	.	.	.	.	.	4.b-	Ché
.	.	8A	di	.	.	8cc	di	.	.
.	.	2B-	fur-	.	.	2dd	fur-	.	.
8A	di	.	.	.	.	.	.	8cc	di
2B-	fur-	.	.	4.d	Ché	.	.	2dd	fur-
.	.	4G	-to	.	.	4b-	-to	.	.
.	.	.	.	8e	di	.	.	.	.
2F	-to	2A	non	2fnXi	fur-	2a	non	2cc	-to
=9	=9	=9	=9	=9	=9	=9	=9	=9	=9
2BB-	non	4.B-	vi-	4.d	-to	2fi	vi-	4b-	non
.	.	.	.	.	.	.	.	4.dd	vi-
.	.	16AL	.	8e	non	.	.	.	.
.	.	16GJ	.	.	.	.	.	.	.
2D	vi-	4.F	.	2.f	vi-	2fi	-vi,	.	.
.	.	.	.	.	.	.	.	16ccL	.
.	.	.	.	.	.	.	.	16b-J	.
.	.	.	.	.	.	.	.	4.a	.
.	.	8G	.	.	.	.	.	.	.
1C	-vi,	4A	.	.	.	1r	.	.	.
.	.	.	.	.	.	.	.	8b-	.
.	.	8GL	.	8eL	.	.	.	4.cc	.
.	.	8FJ	.	8dJ	.	.	.	.	.
.	.	2G	.	2e	.	.	.	.	.
.	.	.	.	.	.	.	.	16b-L	.
.	.	.	.	.	.	.	.	16aJ	.
.	.	.	.	.	.	.	.	4g	.
=10	=10	=10	=10	=10	=10	=10	=10	=10	=10
2r	.	2F	-vi,	8f	-vi,	8r	.	2a	-vi,
.	.	.	.	8a	Né	8cc	Né	.	.
.	.	.	.	8f	di	8a	di	.	.
.	.	.	.	8g	ra-	8b-	ra-	.	.
4.F	Ché	2r	.	4.a	-pi-	4.cc	-pi-	8r	.
.	.	.	.	.	.	.	.	8cc	Né
.	.	.	.	.	.	.	.	8a	di
8G	di	.	.	8g	.	8b-	.	8b-	ra-
2A	fur-	4.F	Ché	4f	.	8aL	.	8ccL	-pi-
.	.	.	.	.	.	8gJ	.	8b-	.
.	.	.	.	4f	-na,	2fi	.	8a	.
.	.	8G	di	.	.	.	.	8gJ	.
4A	-to	4A	fur-	8r	.	.	.	4f	.
.	.	.	.	8c	Né	.	.	.	.
4G	non	8A	-to	8A	di	4a	-na an-	4f	-na an-
.	.	8F	non	8B-	ra-	.	.	.	.
=11	=11	=11	=11	=11	=11	=11	=11	=11	=11
2C	vi-	2G	vi-	4c	-pi-	2g	-co-	2e	-co-
.	.	.	.	4c	-na an-	.	.	.	.
8F	-vi,	8F	-vi,	2c	-co-	2a	-ra,	2f	-ra,
8A	Né	8c	Né	.	.	.	.	.	.
8F	di	8A	di	.	.	.	.	.	.
8G	ra-	8B-	ra-	.	.	.	.	.	.
8AL	-pi-	8cL	-pi-	2F	-ra,	2r	.	4.f	Ché
8G	.	8B-	.	.	.	.	.	.	.
8F	.	8A	.	.	.	.	.	.	.
8EJ	.	8GJ	.	.	.	.	.	8g	di
4D	.	4F	.	4r	.	4.fi	Ché	4a	fur-
4D	-na an-	4F	-na an-	8d	Ché	.	.	8a	-to
.	.	.	.	8d	di	8fi	di	8b-	non
=12	=12	=12	=12	=12	=12	=12	=12	=12	=12
2C	-co-	2c	-co-	4e	fur-	4g	fur-	2cc	vi-
.	.	.	.	8e	-to	8g	-to	.	.
.	.	.	.	8e	non	8g	non	.	.
2FF	-ra,	2c	-ra,	2f	vi-	2a	vi-	8cc	-vi,
.	.	.	.	.	.	.	.	8cc	Né
.	.	.	.	.	.	.	.	8a	di
.	.	.	.	.	.	.	.	8b-	ra-
4r	.	4.F	Ché	2f	-vi,	2a	-vi,	8ccL	-pi-
.	.	.	.	.	.	.	.	8b-	.
4.F	Ché	.	.	.	.	.	.	8a	.
.	.	8G	di	.	.	.	.	8gJ	.
.	.	2A	fur-	8r	.	8r	.	4f	.
8G	di	.	.	8a	Né	8cc	Né	.	.
4A	fur-	.	.	8f	di	8a	di	4f	-na an-
.	.	.	.	8g	ra-	8b-	ra-	.	.
=13	=13	=13	=13	=13	=13	=13	=13	=13	=13
2F	-to	2A	-to	8aL	-pi-	8ccL	-pi-	4.f	-co-
.	.	.	.	8g	.	8b-	.	.	.
.	.	.	.	8f	.	8a	.	.	.
.	.	.	.	8eJ	.	8gJ	.	8g	.
2F	non	2c	non	4f	.	4fi	.	4.a	.
.	.	.	.	4f	-na an-	4a	.	.	.
.	.	.	.	.	.	.	.	8b-	.
2C	vi-	2c	vi-	4e	-co-	4g	.	1cc	.
.	.	.	.	4f	.	2fi	-na an-	.	.
2C	-vi,	2c	-vi,	2g	.	.	.	.	.
.	.	.	.	.	.	4e	-co-	.	.
=14	=14	=14	=14	=14	=14	=14	=14	=14	=14
8r	.	8r	.	1f	-ra,	1fi	-ra,	1a	-ra,
8F	Né	8A	Né	.	.	.	.	.	.
8D	di	8F	di	.	.	.	.	.	.
8E	ra-	8G	ra-	.	.	.	.	.	.
8FL	-pi-	8AL	-pi-	.	.	.	.	.	.
8E	.	8G	.	.	.	.	.	.	.
8D	.	8F	.	.	.	.	.	.	.
8CJ	.	8EJ	.	.	.	.	.	.	.
2BB-	.	2D	.	4r	.	8r	.	8r	.
.	.	.	.	.	.	8b-	Né	8dd	Né
.	.	.	.	4d	Né	8g	di	8b-	di
.	.	.	.	.	.	8a	ra-	8cc	ra-
2BB-	-na an-	2D	-na an-	4B-	di	8b-L	-pi-	8ddL	-pi-
.	.	.	.	.	.	8a	.	8cc	.
.	.	.	.	4d	ra-	8g	.	8b-	.
.	.	.	.	.	.	8fiJ	.	8aJ	.
=15	=15	=15	=15	=15	=15	=15	=15	=15	=15
1C	-co-	4G	-co-	4G	-pi-	4e	.	4g	.
.	.	4C	.	4A	-na an-	4fi	-na an-	2f	-na an-
.	.	2c	.	2G	-co-	2g	-co-	.	.
.	.	.	.	.	.	.	.	4e	-co-
2FF	-ra;	2c	-ra;	2F	-ra;	2a	-ra;	1f	-ra;
4F	E,	4c	E,	4f	E,	4a	E,	.	.
8F	se	8c	se	8f	se	8a	se	.	.
8F	nu-	8c	nu-	8f	nu-	8a	nu-	.	.
=16	=16	=16	=16	=16	=16	=16	=16	=16	=16
4F	-dri-	4c	-dri-	4f	-dri-	4a	-dri-	0r	.
4G	-to	4B-	-to	4d	-to	4g	-to	.	.
4.D	pur	4.A	pur	4.d	pur	4.f#X	pur	.	.
8D	ne	8A	ne	8d	ne	8f#	ne	.	.
4D	sei	4A	sei	4d	sei	4f#	sei	.	.
4E-X	ta-	4G	ta-	4c	ta-	4g	ta-	.	.
2D	-l'ho-	2A	-l'ho-	2d	-l'ho-	2f#X	-l'ho-	.	.
=17	=17	=17	=17	=17	=17	=17	=17	=17	=17
1D	-ra,	2A	-ra,	2d	-ra,	2f#Xi	-ra,	2r	.
.	.	2D	Il	2d	Il	2f#	Il	2a	Il
1r	.	2G	ci-	2d	ci-	2g	ci-	2b-	ci-
.	.	2F	-bo è	2f	-bo è	2a	-bo è	2cc	-bo è
=18	=18	=18	=18	=18	=18	=18	=18	=18	=18
2r	.	1B-	tuo,	2f	tuo,	1b-	tuo,	4dd	tuo,
.	.	.	.	.	.	.	.	4d	ma
2B-	Il	.	.	4r	.	.	.	8d	la
.	.	.	.	.	.	.	.	8e	fa-
.	.	.	.	4d	ma	.	.	8f	-ti-
.	.	.	.	.	.	.	.	8g	-ca è
2A	ci-	4r	.	8c	la	2r	.	4a	mi-
.	.	.	.	8d	fa-	.	.	.	.
.	.	4c	ma	8e	-ti-	.	.	4a	-a,
.	.	.	.	8f	-ca è	.	.	.	.
2G	-bo è	8B-	la	2g	mi-	4r	.	2r	.
.	.	8c	fa-	.	.	.	.	.	.
.	.	8d	-ti-	.	.	4g	ma	.	.
.	.	8e	-ca è	.	.	.	.	.	.
=19	=19	=19	=19	=19	=19	=19	=19	=19	=19
2F	tuo,	4f	mi-	2c	-a,	8a	la	4r	.
.	.	.	.	.	.	8g	fa-	.	.
.	.	4f	-a,	.	.	8a	-ti-	4f	ma
.	.	.	.	.	.	8b-	-ca è	.	.
2E-X	ma	2r	.	4r	.	4cc	mi-	8g	la
.	.	.	.	.	.	.	.	8a	fa-
.	.	.	.	4G	ma	4g	-a,	8b-	-ti-
.	.	.	.	.	.	.	.	8cc	-ca è
2D	la	4r	.	8F	la	2r	.	4dd	mi-
.	.	.	.	8G	fa-	.	.	.	.
.	.	4D	<ma	8A	-ti-	.	.	4dd	-a,
.	.	.	.	8B-	-ca è	.	.	.	.
2C	fa-	8E	la	4c	mi-	4r	.	2r	.
.	.	8F	fa-	.	.	.	.	.	.
.	.	8G	-ti-	4c	-a,	4c	ma	.	.
.	.	8E	-ca è	.	.	.	.	.	.
=20	=20	=20	=20	=20	=20	=20	=20	=20	=20
2BB-	-ti-	4F	mi-	4r	.	8d	la	4r	.
.	.	.	.	.	.	8e	fa-	.	.
.	.	4D	-a,>	4d	ma	8fi	-ti-	4d	ma
.	.	.	.	.	.	8g	-ca è	.	.
2AA	-ca è	4r	.	8e	la	4a	mi-	8c	la
.	.	.	.	8d	fa-	.	.	8d	fa-
.	.	4A	ma	8c	-ti-	4a	-a,	8e	-ti-
.	.	.	.	8c	-ca è	.	.	8f	-ca è
2GG	mi-	8B-	la	4d	mi-	4r	.	4g	mi-
.	.	8c	fa-	.	.	.	.	.	.
.	.	8d	-ti-	4B-	-a,	4g	<ma	4d	-a,
.	.	8e	-ca è	.	.	.	.	.	.
2FF	-a.	4f	mi-	4r	.	8a	la	4r	.
.	.	.	.	.	.	8g	fa-	.	.
.	.	4f	-a.	4c	<ma	8a	-ti-	4f	ma
.	.	.	.	.	.	8b-	-ca è	.	.
=21	=21	=21	=21	=21	=21	=21	=21	=21	=21
1FF	E	2r	.	8c	la	4cc	mi-	8a	la
.	.	.	.	8B-	fa-	.	.	8g	fa-
.	.	.	.	8A	-ti-	4cc	-a.>	8a	-ti-
.	.	.	.	8G	-ca è	.	.	8b-	-ca è
.	.	4r	.	4F	mi-	2r	.	4cc	mi-
.	.	4A	E	8F	-a.>	.	.	4cc	-a.
.	.	.	.	8f	E	.	.	.	.
2GG	tu	4G	tu	4e	tu	1r	.	1r	.
.	.	4F	la	4d	la	.	.	.	.
2AA	la	4E	fug-	4c#X	fug-	.	.	.	.
.	.	4E	-gi e	4c#i	-gi e	.	.	.	.
=22	=22	=22	=22	=22	=22	=22	=22	=22	=22
2BB-	fug-	4D	schi-	4d	schi-	4r	.	4r	.
.	.	4D	-vi,	4d	-vi,	4b-	E	4dd	E
2C	-gi è	2r	.	2r	.	4a	tu	4cc	tu
.	.	.	.	.	.	4g	la	4b-	la
2D	schi-	2r	.	2r	.	4f#X	fug-	4a	fug-
.	.	.	.	.	.	4f#	-gi e	4a	-gi e
4E	-vi,	4r	.	4r	.	4g	schi-	4g	schi-
4E	e	4G	E	4g	E	4g	-vi,	4g	-vi,
=23	=23	=23	=23	=23	=23	=23	=23	=23	=23
2F	schi-	4A	tu	4f	tu	2r	.	1r	.
.	.	4c	la	4e	la	.	.	.	.
4G	-vi,	4BnX	fug-	4d	fug-	4r	.	.	.
4G	e	4B	-gi e	4d	-gi e	4g	E	.	.
2A	schi-	4c	schi-	4c	schi-	4fi	tu	4r	.
.	.	4c	-vi	4c	-vi	4e	la	4cc	E
4B-	-vi,	2r	.	2r	.	4d	fug-	4b-	tu
4B-	e	.	.	.	.	4d	-gi e	4a	la
=24	=24	=24	=24	=24	=24	=24	=24	=24	=24
1c	schi-	2r	.	1r	.	4e	schi-	4g	fug-
.	.	.	.	.	.	4fi	.	4f	-gi e
.	.	1c	Nel	.	.	2g	.	2e	schi-
1F	-vi	.	.	[1c	Nel	1a	-vi	1f	-vi
.	.	[2A	dol-	.	.	.	.	.	.
=25	=25	=25	=25	=25	=25	=25	=25	=25	=25
1F	Nel	2A]	.	1c]	.	1fi	Nel	1a	Nel
.	.	2A	-c'al-	.	.	.	.	.	.
2D	dol-	[1A	-ber-	2d	dol-	2fi	dol-	2a	dol-
2C#X	-c'al-	.	.	2e	-c'al-	2e	-c'al-	2a	-c'al-
=26	=26	=26	=26	=26	=26	=26	=26	=26	=26
1D	-ber-	1A]	.	1f	-ber-	1d	-ber-	1a	-ber-
2AA	-go	1A	-go	1e	-go	2c#X	-go	2a	-go
4r	.	.	.	.	.	2r	.	4r	.
4A	o-	.	.	.	.	.	.	4cc	o-
=27	=27	=27	=27	=27	=27	=27	=27	=27	=27
4F	-ve	2r	.	4r	.	0r	.	4a	-ve
4G	gio-	.	.	4g	o-	.	.	4b-	gio-
8AL	-ir	4r	.	4e	-ve	.	.	8ccL	-ri
8G	.	.	.	.	.	.	.	8b-	.
8F	.	4A	o-	4f	gio-	.	.	8a	.
8EJ	.	.	.	.	.	.	.	8gJ	.
8DL	.	4F	-ve	8fL	-ir	.	.	4a	.
8C	.	.	.	8e	.	.	.	.	.
8BB-	.	4F	gio-	8d	.	.	.	4b-	so-
8AAJ	.	.	.	8cJ	.	.	.	.	.
4GG	.	8GL	-ir	4B-	.	.	.	8b-L	-li-
.	.	8F	.	.	.	.	.	8a	.
4GG	so-	8E	.	4B-	so-	.	.	8g	.
.	.	8DJ	.	.	.	.	.	8fJ	.
=28	=28	=28	=28	=28	=28	=28	=28	=28	=28
1AA	-li-	4C	.	8cL	-li-	1r	.	4e	.
.	.	.	.	8B-	.	.	.	.	.
.	.	4D	so-	8A	.	.	.	2d	.
.	.	.	.	8GJ	.	.	.	.	.
.	.	2E	-li-	2A	.	.	.	.	.
.	.	.	.	.	.	.	.	4c#i	.
1D	-a.	1D	-a.	1A	-a.	2r	.	1d	-a.
.	.	.	.	.	.	[2a	Las-	.	.
=29	=29	=29	=29	=29	=29	=29	=29	=29	=29
0r	.	1d	Las-	0r	.	4a]	.	2r	.
.	.	.	.	.	.	4g	.	.	.
.	.	.	.	.	.	1fi	.	1a	Las-
.	.	1c	-so!	.	.	.	.	.	.
.	.	.	.	.	.	2e	-so!	2g	-so,
=30	=30	=30	=30	=30	=30	=30	=30	=30	=30
0r	.	8r	.	2r	.	8r	.	0dd	Las-
.	.	8B-	ben	.	.	8d	ben	.	.
.	.	8B-	che	.	.	8d	che	.	.
.	.	8c	di	.	.	8e	di	.	.
.	.	4d	fur-	8r	.	4fi	fur-	.	.
.	.	.	.	8d	ben	.	.	.	.
.	.	4B-	-to,	8d	che	4d	-to,	.	.
.	.	.	.	8e	di	.	.	.	.
.	.	8r	.	4f	fur-	8r	.	.	.
.	.	8B-	ben	.	.	8d	ben	.	.
.	.	8B-	che	4d	-to,	8d	che	.	.
.	.	8c	di	.	.	8e	di	.	.
.	.	8d	fur-	2r	.	8fi	fur-	.	.
.	.	8c	-to	.	.	8e	-to	.	.
.	.	8d	non	.	.	8fi	non	.	.
.	.	8e	sia	.	.	8g	sia	.	.
=31	=31	=31	=31	=31	=31	=31	=31	=31	=31
0A	Las-	2f	na-	8r	.	2a	na-	1cc	-so!
.	.	.	.	8F	ben	.	.	.	.
.	.	.	.	8F	che	.	.	.	.
.	.	.	.	8G	di	.	.	.	.
.	.	2e	-to,	8A	fur-	2a	-to,	.	.
.	.	.	.	8G	-to	.	.	.	.
.	.	.	.	8A	non	.	.	.	.
.	.	.	.	8B-	sia	.	.	.	.
.	.	4r	.	4c	na-	4r	.	8r	.
.	.	.	.	.	.	.	.	8c	ben
.	.	4c	Ho	4c	-to,	4a	Ho	8c	che
.	.	.	.	.	.	.	.	8d	di
.	.	4c	men	2r	.	4a	men	8e	fur-
.	.	.	.	.	.	.	.	8d	-to
.	.	4c	be-	.	.	4a	be-	8e	non
.	.	.	.	.	.	.	.	8f	sia
=32	=32	=32	=32	=32	=32	=32	=32	=32	=32
1G	-so	4d	-ni-	1r	.	4bX	-ni-	2g	na-
.	.	4e	-gno	.	.	2cc	-gno	.	.
.	.	2d	fa-	.	.	.	.	2g	-to,
.	.	.	.	.	.	4bX	fa-	.	.
8r	.	1c	-to,	8r	.	1cc	-to,	1a	Las-
8F	ben	.	.	8A	ben	.	.	.	.
8F	che	.	.	8A	che	.	.	.	.
8G	di	.	.	8B-	di	.	.	.	.
8A	fur-	.	.	8c	fur-	.	.	.	.
8G	-to	.	.	8B-	-to	.	.	.	.
8A	non	.	.	8c	non	.	.	.	.
8B-	sia	.	.	8d	sia	.	.	.	.
=33	=33	=33	=33	=33	=33	=33	=33	=33	=33
2c	na-	8r	.	4e	na-	8r	.	1g	-so,
.	.	8C	ben	.	.	8e	Ben	.	.
.	.	8C	che	4c	-to,	8e	che	.	.
.	.	8D	di	.	.	8fi	di	.	.
2C	-to,	8E	fur-	2r	.	8g	fur-	.	.
.	.	8D	-to	.	.	8fi	-to	.	.
.	.	8E	non	.	.	8g	non	.	.
.	.	8F	sia	.	.	8a	sia	.	.
8r	.	2G	na-	8r	.	2b-X	na-	1r	.
8GG	<ben	.	.	8B-	<ben	.	.	.	.
8GG	che	.	.	8B-	che	.	.	.	.
8AA	di	.	.	8c	di	.	.	.	.
8BB-	fur-	2G	-to,	8d	fur-	2b-	-to,	.	.
8AA	-to	.	.	8c	-to	.	.	.	.
8BB-	non	.	.	8d	non	.	.	.	.
8C	sia	.	.	8e	sia	.	.	.	.
=34	=34	=34	=34	=34	=34	=34	=34	=34	=34
2D	na-	1r	.	2f	na-	8r	.	8r	.
.	.	.	.	.	.	8fi	ben	8d	ben
.	.	.	.	.	.	8fi	che	8d	che
.	.	.	.	.	.	8g	di	8e	di
2D	-to,>	.	.	2d	-to,>	8a	fur-	8f	fur-
.	.	.	.	.	.	8g	-to	8e	-to
.	.	.	.	.	.	8a	non	8f	non
.	.	.	.	.	.	8b-	sia	8g	sia
1r	.	1F	Ho	8r	.	2cc	na-	2a	na-
.	.	.	.	8F	ben	.	.	.	.
.	.	.	.	8F	che	.	.	.	.
.	.	.	.	8G	di	.	.	.	.
.	.	.	.	8A	fur-	4cc	-to,	2a	-to,
.	.	.	.	8G	-to	.	.	.	.
.	.	.	.	8A	non	4cc	Ho	.	.
.	.	.	.	8B-	sia	.	.	.	.
=35	=35	=35	=35	=35	=35	=35	=35	=35	=35
0r	.	2F	men	2c	na-	4ffi	men	4r	.
.	.	.	.	.	.	4ee	be-	4cc	Ho
.	.	2F	be-	4A	-to,	4dd	-ni-	4ff	men
.	.	.	.	4c	Ho	4cc	-gno	4ee	be-
.	.	2G	-ni-	4g	men	2bX	fa-	2dd	-ni-
.	.	.	.	4f	be-	.	.	.	.
.	.	2A	-gno	4e	-ni-	[2cc	.	2cc	-gno
.	.	.	.	4e	-gno	.	.	.	.
=36	=36	=36	=36	=36	=36	=36	=36	=36	=36
0r	.	1G	fa-	1g	fa-	4cc]	.	1dd	fa-
.	.	.	.	.	.	8bXL	.	.	.
.	.	.	.	.	.	8aJ	.	.	.
.	.	.	.	.	.	2bX	.	.	.
.	.	1C	-to,	1g	-to,	4cc	-to,	2cc	-to,
.	.	.	.	.	.	4g	Ho	.	.
.	.	.	.	.	.	4cc	men	4r	.
.	.	.	.	.	.	4b-	be-	4g	Ho
=37	=37	=37	=37	=37	=37	=37	=37	=37	=37
1C	Ho	4r	.	2r	.	4a	-ni-	4cc	men
.	.	4G	Ho	.	.	4g	-gno	4b-	be-
.	.	4c	men	4r	.	2e	fa-	4a	-ni-
.	.	4B-	be-	4G	Ho	.	.	4g	-gno
2C	men	4A	-ni-	4c	men	4c	-to,	2e	fa-
.	.	4G	-gno	4B-	be-	4g	Ho	.	.
2C	be-	4E	fa-	4A	-ni-	4cc	men	4c	-to,
.	.	4G	-to,	4G	-gno	4b-	be-	4g	Ho
=38	=38	=38	=38	=38	=38	=38	=38	=38	=38
2D	-ni-	4r	.	2F	fa-	2a	-ni-	4dd	men
.	.	4D	<Ho	.	.	.	.	4cc	be-
2E-X	-gno	4G	men	2G	.	2g	-gno	4b-	-ni-
.	.	4G	be-	.	.	.	.	4cc	-gno
1D	fa-	4F	-ni-	1d	.	4a	fa-	1dd	fa-
.	.	4G	-gno	.	.	2g	.	.	.
.	.	2A	fa-	.	.	.	.	.	.
.	.	.	.	.	.	4f#Xi	.	.	.
=39	=39	=39	=39	=39	=39	=39	=39	=39	=39
0GGl	-to.	0Gl	-to.>	0dl	-to.	0gl	-to.	0bnXl	-to.
==	==	==	==	==	==	==	==	==	==
*-	*-	*-	*-	*-	*-	*-	*-	*-	*-
!!!system-decoration: [*]
!!!RDF**kern: i = editorial accidental
!!!RDF**kern: l = terminal long
!!!ENC: Emiliano Ricciardi
!!!END: 2019/01/01
!!!EED: Ricciardi, Emiliano
!!!EEV: 2019/01/14
!!!YEC: Copyright 2018 Emiliano Ricciardi, All Rights Reserved
!!!ONB: Translated from MusicXML on 2019/01/14 and edited by Craig Stuart Sapp
!!@@BEGIN:	VERSEDATA
!!@SOLERTI:	1032
!!@CATALOGNUM:	Trm1032
!!@LAST_MODIFIED: 2020/07/12
!!@TITLE:		Tu nascesti di furto
!!@GENRE:		madrigale
!!@MANUSRC:	E<sub>1</sub>, F<sub>2</sub>, V<sub>9</sub>, V<sub>13/E1</sub>
!!@PRINTSRC:	48, 54
!!@@BEGIN:	VERSES
!!@ABOUTIT:	[A Grechino, cagnoletto della duchessa Margherita d'Este Gonzaga]
!!@ABOUTEN:	[To Grechino, little dog of duchess Margherita d'Este Gonzaga.]
!!@EDITOR:	Solerti, Angelo
!!@EDITION_TITLE: Le Rime di Torquato Tasso
!!@EDITION_LOC:	Bologna
!!@EDITION_PUB:	Romagnoli-Dall’Acqua
!!@EDITION_DATE:  1898-1902
!!@EDITION_VOL:	4
!!@EDITION_PAGE:  75
!!@TRANSLATOR:	Emiliano Ricciardi and Amyrose McCue Gill
!!@VERSE:
!!	Tu nascesti di furto,
!!	Piccioletto Grechino,
!!	Ma fu certo felice il tuo destino.
!!	Ché di furto non vivi,
!!	Né di rapina ancora;
!!	E, se nutrito pur ne sei talora,
!!	Il cibo è tuo, ma la fatica è mia.
!!	E tu la fuggi e schivi
!!	Nel dolce albergo ove gioir solia.
!!	Lasso! benché di furto io non sia nato,
!!	Ho men benigno fato.
!!@TVERSE:
!!	You were born of theft,
!!	Tiny little Grechino,
!!	But your destiny was certainly happy.
!!	Since by theft you do not live,
!!	Nor either by robbery;
!!	And, even if nourished you are at times,
!!	The food is yours, but the labor is mine.
!!	And you flee and shy from it
!!	Into the sweet refuge wherein I used to take joy.
!!	Alas! Though of theft I be not born,
!!	I have a less favorable fate.
!!@@END:		VERSES
!!@OTHER_CRIT_ED:   Secure
!!	<br>
!!	Among other sources, this sonnet appears in the authoritative manuscript It. 385, Biblioteca Estense Universitaria, Modena, Italy (see Literary Sources).
!!@DATING:	Mid-1580s?
!!@DEDICATEE:	Grechino
!!@DEDICATEE_INFO:	Margherita Gonzaga's dog
!!@COMMENTARY:
!!@@END:		VERSEDATA
!!@@BEGIN:	SETTING
!!@CATALOGNUM:	Trm1032a
!!@RIMETITLE:	Tu nascesti di furto
!!@SOLERTI:	1032
!!@COMPOSER:	Giovannelli, Ruggiero
!!@PRINCEPSFORMAT: anthology
!!@PRINCEPSTITLE:	La gloria musicale. A cinque voci
!!@PRINCEPSLOC:	Venetia
!!@NORMLOC:	Venice
!!@NORMPUB:	Amadino
!!@NORMPUBSHORT:	Amadino
!!@PRINCEPSPUB:	Amadino
!!@PRINCEPSYEAR:	1592
!!@PRINCEPSRISM:	1592-14
!!@REPRINTS:	
!!@OVOICES:	5
!!@EXTANTVOICES:	5
!!@PARTBOOKS:	
!!@EXTPARTBOOKS:	
!!@OCLEFS:	C1,C1,C3,C4,F4
!!@OMENSURATION:	C
!!@OKEYSIG:	-
!!@FINAL:	G
!!@TIMPEDITOR:	Ricciardi, Emiliano
!!@NOTE:		
!!@@END:		SETTING
